icons/filled/basket.svg

<svg xmlns="http://www.w3.org/2000/svg" width="24" height="24" viewBox="0 0 24 24" fill="currentColor"><path d="M15.949 3.684l1.104 3.316h1.947a3 3 0 0 1 2.962 3.477l-1.252 7.131a4 4 0 0 1 -3.954 3.392h-9.512a3.994 3.994 0 0 1 -3.95 -3.371l-1.258 -7.173a3 3 0 0 1 2.964 -3.456h1.945l1.105 -3.316a1 1 0 0 1 1.898 .632l-.895 2.684h5.893l-.895 -2.684a1 1 0 1 1 1.898 -.632m-3.949 7.316a3 3 0 0 0 -2.995 2.824l-.005 .176a3 3 0 1 0 3 -3"/></svg>

<svg xmlns="http://www.w3.org/2000/svg" width="24" height="24" fill="currentColor"><path d="M15.949 3.684 17.053 7H19a3 3 0 0 1 2.962 3.477l-1.252 7.131A4 4 0 0 1 16.756 21H7.244a3.994 3.994 0 0 1-3.95-3.371l-1.258-7.173A3 3 0 0 1 5 7h1.945L8.05 3.684a1 1 0 0 1 1.898.632L9.053 7h5.893l-.895-2.684a1 1 0 1 1 1.898-.632M12 11a3 3 0 0 0-2.995 2.824L9 14a3 3 0 1 0 3-3"/></svg>
